icons/svg/seamark/buoy_spherical.svg

<?xml version="1.0" encoding="UTF-8" standalone="no"?>
<svg
   xmlns:dc="http://purl.org/dc/elements/1.1/"
   xmlns:cc="http://creativecommons.org/ns#"
   xmlns:rdf="http://www.w3.org/1999/02/22-rdf-syntax-ns#"
   xmlns:svg="http://www.w3.org/2000/svg"
   xmlns="http://www.w3.org/2000/svg"
   xmlns:sodipodi="http://sodipodi.sourceforge.net/DTD/sodipodi-0.dtd"
   xmlns:inkscape="http://www.inkscape.org/namespaces/inkscape"
   width="580"
   height="580"
   id="svg2"
   version="1.1"
   inkscape:version="0.48.4 r9939"
   sodipodi:docname="buoy_spherical.svg">
  <defs
     id="defs13">
    <inkscape:path-effect
       effect="gears"
       id="path-effect3774"
       is_visible="true"
       teeth="6"
       phi="-1.2" />
    <inkscape:path-effect
       effect="bend_path"
       id="path-effect3772"
       is_visible="false"
       bendpath="m 95.790098,316.51174 c 144.429032,-206.42506 223.313032,-11.7428 339.548092,0"
       prop_scale="1.19"
       scale_y_rel="false"
       vertical="false"
       bendpath-nodetypes="cc" />
  </defs>
  <sodipodi:namedview
     pagecolor="#ffffff"
     bordercolor="#666666"
     borderopacity="1"
     objecttolerance="10"
     gridtolerance="10"
     guidetolerance="10"
     inkscape:pageopacity="0"
     inkscape:pageshadow="2"
     inkscape:window-width="1920"
     inkscape:window-height="1004"
     id="namedview11"
     showgrid="false"
     inkscape:zoom="0.81379307"
     inkscape:cx="592.43421"
     inkscape:cy="282.25587"
     inkscape:window-x="1680"
     inkscape:window-y="0"
     inkscape:window-maximized="1"
     inkscape:current-layer="svg2" />
  <metadata
     id="metadata2975">image/svg+xmlen<rdf:RDF>
  <cc:Work
     rdf:about="">
    <dc:format>image/svg+xml</dc:format>
    <dc:type
       rdf:resource="http://purl.org/dc/dcmitype/StillImage" />
    <dc:title />
  </cc:Work>
</rdf:RDF>
</metadata>
  <path
     sodipodi:type="inkscape:offset"
     inkscape:radius="19.59132"
     inkscape:original="M 283.78125 315.75 C 201.04149 315.75 133.96875 382.82274 133.96875 465.5625 C 133.96875 478.72663 134.37362 491.93093 136.71875 504.03125 L 100.34375 504.03125 L 100.34375 529.03125 L 173 529.03125 C 184.36889 529.68063 196.95891 529.38875 208.5625 529.03125 L 241.21875 529.03125 C 241.43695 529.13777 241.70465 529.59374 242.03125 530.25 C 244.09674 536.38024 247.47457 541.92953 251.84375 546.53125 C 255.64985 550.76638 260.856 554.78774 268 557.34375 C 272.8661 559.21818 278.12408 560.25 283.625 560.25 C 285.53115 560.25 287.4057 560.11444 289.25 559.875 C 297.33194 559.05928 305.57541 555.87934 312.8125 549.0625 C 313.08502 548.80581 313.35543 548.54831 313.625 548.28125 C 317.8569 544.30064 321.31681 539.51929 323.71875 534.15625 C 324.47777 532.67014 325.20881 531.10922 325.90625 529.46875 C 326.70982 529.30651 327.5351 529.16377 328.375 529.03125 L 379.0625 529.03125 C 383.68597 529.15101 388.21884 529.17929 392.59375 529.03125 L 455.75 529.03125 L 455.75 504.03125 L 432.53125 504.03125 C 433.60435 492.40943 434.50185 476.28062 433.46875 459.5 C 430.27485 379.58273 364.48205 315.75 283.78125 315.75 z "
     style="opacity:0.42608696000000001;color:#000000;fill:#acd8f3;fill-opacity:1;fill-rule:nonzero;stroke:#a35151;stroke-width:0;stroke-linecap:round;stroke-linejoin:miter;stroke-miterlimit:4;stroke-opacity:1;stroke-dasharray:none;stroke-dashoffset:0;marker:none;visibility:visible;display:inline;overflow:visible;enable-background:accumulate"
     id="path3891"
     d="m 283.78125,296.15625 c -93.32752,0 -169.40625,76.07873 -169.40625,169.40625 0,6.15136 0.13475,12.48338 0.46875,18.875 l -14.5,0 A 19.593279,19.593279 0 0 0 80.75,504.03125 l 0,25 a 19.593279,19.593279 0 0 0 19.59375,19.59375 l 72.65625,0 c 11.97828,0.62417 24.34729,0.34313 35.5625,0 0.19048,-0.006 0.40397,0.006 0.59375,0 l 19.90625,0 c 2.34762,3.9599 5.09114,7.65038 8.21875,11 0.12109,0.12969 0.22157,0.27757 0.34375,0.40625 L 237.65625,560 c 5.52047,6.03288 13.30648,11.92044 23.3125,15.59375 l 0,0.0312 c 0.11335,0.0437 0.23007,0.082 0.34375,0.125 0.0307,0.0116 0.063,0.0197 0.0937,0.0312 6.91504,2.60534 14.43074,4.0625 22.21875,4.0625 2.63961,0 5.16615,-0.20458 7.59375,-0.5 l 0,0.0312 c 0.0713,-0.007 0.14734,-0.0238 0.21875,-0.0312 0.10977,-0.0137 0.23446,-0.0171 0.34375,-0.0312 l 0,-0.0312 c 11.66354,-1.29223 24.20272,-6.29885 34.46875,-15.96875 0.22204,-0.20914 0.49828,-0.50691 0.78125,-0.78125 l 0.0312,0.0312 c 0.12348,-0.11615 0.22115,-0.25786 0.34375,-0.375 4.16409,-3.97862 7.7867,-8.53478 10.78125,-13.5625 l 40.375,0 0.5,0 c 4.49338,0.11052 9.00255,0.13685 13.53125,0 0.21964,-0.007 0.43658,0.007 0.65625,0 l 62.5,0 a 19.593279,19.593279 0 0 0 19.59375,-19.59375 l 0,-25 A 19.593279,19.593279 0 0 0 455.75,484.4375 l -2.375,0 c 0.2452,-7.97545 0.1951,-16.70283 -0.34375,-25.71875 -0.009,-0.14849 0.009,-0.28884 0,-0.4375 l -0.0312,0 c -3.83195,-90.0219 -78.336,-162.125 -169.21875,-162.125 z" />
  <path
     style="fill:#bdbdbd;stroke:#a35151;stroke-width:0;stroke-linecap:round;stroke-linejoin:miter;stroke-opacity:1;color:#000000;fill-opacity:1;fill-rule:nonzero;stroke-miterlimit:4;stroke-dasharray:none;stroke-dashoffset:0;marker:none;visibility:visible;display:inline;overflow:visible;enable-background:accumulate"
     d="m 154.66463,515.70122 c 0,0 -15.64024,-53.00305 -15.64024,-56.47866 0,-3.47561 10.42683,-46.92073 15.64024,-53.00305 5.21342,-6.08231 41.70732,-54.74085 41.70732,-54.74085 0,0 51.26524,-22.59146 55.60976,-22.59146 4.34451,0 47.78963,-2.60671 53.00305,-2.60671 5.21341,0 36.4939,10.42683 41.70731,13.03354 5.21342,2.6067 35.625,23.46036 39.10061,27.80487 3.47561,4.34452 24.32927,38.23171 27.80488,43.44512 3.47561,5.21342 13.90244,36.49391 13.90244,43.44513 0,6.95122 -2.60671,30.41158 -5.21342,39.96951 -2.6067,9.55793 -17.37804,25.19817 -17.37804,25.19817 z"
     id="path2990"
     inkscape:connector-curvature="0" />
  <path
     style="opacity:0.42608696;color:#000000;fill:#000000;fill-opacity:1;fill-rule:nonzero;stroke:#a35151;stroke-width:0;stroke-linecap:round;stroke-linejoin:miter;stroke-miterlimit:4;stroke-opacity:1;stroke-dashoffset:0;marker:none;visibility:visible;display:inline;overflow:visible;enable-background:accumulate"
     d="m 376.49783,380.45649 c 9.90416,-1.75665 32.90539,24.77611 41.06001,52.0239 12.13923,40.56194 -10.17055,86.01669 -10.17055,86.01669 l -23.76525,3.62484 c 0,0 13.13142,-27.24607 12.3298,-62.11865 -1.1851,-51.55499 -29.35816,-77.79015 -19.45401,-79.54678 z"
     id="rect3050"
     inkscape:connector-curvature="0"
     sodipodi:nodetypes="zsccsz" />
  <path
     style="fill:none;stroke:#000000;stroke-width:25;stroke-linecap:butt;stroke-linejoin:miter;stroke-opacity:1;stroke-miterlimit:4;stroke-dasharray:none"
     d="m 99.923776,516.57012 355.381084,0"
     id="path3759"
     inkscape:connector-curvature="0" />
  <path
     sodipodi:type="arc"
     style="color:#000000;fill:#fefefe;fill-opacity:1;stroke:#000000;stroke-width:25;stroke-linecap:round;stroke-linejoin:round;stroke-miterlimit:10;stroke-opacity:1;stroke-dasharray:none;stroke-dashoffset:0;marker:none;visibility:visible;display:inline;overflow:visible;enable-background:accumulate"
     id="path3759-1"
     sodipodi:cx="210.27438"
     sodipodi:cy="76.036606"
     sodipodi:rx="40.838413"
     sodipodi:ry="40.838413"
     d="m 251.1128,76.036606 a 40.838413,40.838413 0 1 1 -81.67683,0 40.838413,40.838413 0 1 1 81.67683,0 z"
     transform="matrix(0.82289092,0,0,0.82289092,110.16458,453.8318)" />
  <path
     style="opacity:0.444;color:#000000;fill:#ffffff;fill-opacity:1;fill-rule:nonzero;stroke:none;stroke-width:0;marker:none;visibility:visible;display:inline;overflow:visible;enable-background:accumulate"
     d="m 240.19123,356.50465 c -6.82897,-5.03772 -35.87403,8.41488 -50.99368,27.04712 -12.26078,15.10921 -15.21946,22.87503 -19.44622,39.65825 -2.26678,9.00069 -3.42242,32.23959 3.62431,26.19851 4.47873,-3.83956 6.92414,-16.57557 20.59229,-39.41132 22.34361,-37.33008 53.05229,-48.45488 46.2233,-53.49256 z"
     id="rect3050-4"
     inkscape:connector-curvature="0"
     sodipodi:nodetypes="zssssz" />
  <path
     style="font-size:medium;font-style:normal;font-variant:normal;font-weight:normal;font-stretch:normal;text-indent:0;text-align:start;text-decoration:none;line-height:normal;letter-spacing:normal;word-spacing:normal;text-transform:none;direction:ltr;block-progression:tb;writing-mode:lr-tb;text-anchor:start;baseline-shift:baseline;color:#000000;fill:#000000;fill-opacity:1;stroke:none;stroke-width:17;marker:none;visibility:visible;display:inline;overflow:visible;enable-background:accumulate;font-family:Sans;-inkscape-font-specification:Sans;stroke-miterlimit:4;stroke-dasharray:none"
     d="M 283.90625 314.9375 C 200.79585 314.9375 133.25 382.54585 133.25 465.65625 C 133.25 485.67069 137.17163 504.76275 144.28125 522.25 L 166.03125 522.25 C 157.82129 505.13741 153.21875 485.94134 153.21875 465.65625 C 153.21875 393.35465 211.60465 334.96875 283.90625 334.96875 C 356.20785 334.96875 414.625 393.35465 414.625 465.65625 C 414.625 485.94115 410.05723 505.13753 401.84375 522.25 L 423.5625 522.25 C 430.67663 504.761 434.625 485.67314 434.625 465.65625 C 434.625 382.54585 367.01665 314.9375 283.90625 314.9375 z "
     id="path2989" />
</svg>

<svg width="580" height="580" viewBox="0 0 580 580" fill="none" xmlns="http://www.w3.org/2000/svg">
<path opacity="0.426087" d="M283.781 296.156C190.454 296.156 114.375 372.235 114.375 465.562C114.375 471.714 114.51 478.046 114.844 484.438H100.344C97.7706 484.437 95.2227 484.944 92.8455 485.929C90.4682 486.914 88.3082 488.357 86.4887 490.176C84.6693 491.996 83.226 494.156 82.2414 496.533C81.2567 498.91 80.7499 501.458 80.75 504.031V529.031C80.7499 531.604 81.2567 534.152 82.2414 536.53C83.226 538.907 84.6693 541.067 86.4887 542.886C88.3082 544.706 90.4682 546.149 92.8455 547.134C95.2227 548.118 97.7706 548.625 100.344 548.625H173C184.978 549.249 197.347 548.968 208.562 548.625C208.753 548.619 208.966 548.631 209.156 548.625H229.062C231.41 552.585 234.154 556.275 237.281 559.625C237.402 559.755 237.503 559.903 237.625 560.031L237.656 560C243.177 566.033 250.963 571.92 260.969 575.594V575.625C261.082 575.669 261.199 575.707 261.312 575.75C261.343 575.762 261.375 575.77 261.406 575.781C268.321 578.386 275.837 579.844 283.625 579.844C286.265 579.844 288.791 579.639 291.219 579.344V579.375C291.29 579.368 291.366 579.351 291.437 579.344C291.547 579.33 291.672 579.327 291.781 579.312V579.281C303.445 577.989 315.984 572.982 326.25 563.312C326.472 563.103 326.748 562.806 327.031 562.531L327.062 562.562C327.186 562.446 327.284 562.305 327.406 562.187C331.57 558.209 335.193 553.653 338.187 548.625H378.562H379.062C383.556 548.735 388.065 548.762 392.594 548.625C392.813 548.618 393.03 548.632 393.25 548.625H455.75C458.323 548.625 460.871 548.118 463.248 547.134C465.625 546.149 467.785 544.706 469.605 542.886C471.424 541.067 472.868 538.907 473.852 536.529C474.837 534.152 475.344 531.604 475.344 529.031V504.031C475.344 501.458 474.837 498.91 473.852 496.533C472.868 494.156 471.424 491.996 469.605 490.176C467.785 488.357 465.625 486.914 463.248 485.929C460.871 484.944 458.323 484.437 455.75 484.438H453.375C453.62 476.462 453.57 467.735 453.031 458.719C453.022 458.57 453.04 458.43 453.031 458.281H453C449.168 368.259 374.664 296.156 283.781 296.156H283.781Z" fill="#ACD8F3"/>
<path d="M154.665 515.701C154.665 515.701 139.024 462.698 139.024 459.222C139.024 455.747 149.451 412.302 154.665 406.219C159.878 400.137 196.372 351.478 196.372 351.478C196.372 351.478 247.637 328.887 251.982 328.887C256.326 328.887 299.771 326.28 304.985 326.28C310.198 326.28 341.479 336.707 346.692 339.314C351.906 341.921 382.317 362.774 385.793 367.119C389.268 371.463 410.122 405.35 413.598 410.564C417.073 415.777 427.5 447.058 427.5 454.009C427.5 460.96 424.893 484.421 422.287 493.978C419.68 503.536 404.909 519.177 404.909 519.177L154.665 515.701Z" fill="#BDBDBD"/>
<path opacity="0.426087" d="M376.498 380.457C386.402 378.7 409.403 405.233 417.558 432.481C429.697 473.043 407.387 518.497 407.387 518.497L383.622 522.122C383.622 522.122 396.753 494.876 395.952 460.003C394.767 408.448 366.594 382.213 376.498 380.457V380.457Z" fill="black"/>
<path d="M99.9238 516.57H455.305" stroke="black" stroke-width="25"/>
<path d="M316.803 516.401C316.803 525.314 313.262 533.862 306.96 540.164C300.658 546.466 292.11 550.007 283.197 550.007C274.285 550.007 265.737 546.466 259.435 540.164C253.132 533.862 249.592 525.314 249.592 516.401C249.592 507.489 253.132 498.941 259.435 492.639C265.737 486.336 274.285 482.796 283.197 482.796C292.11 482.796 300.658 486.336 306.96 492.639C313.262 498.941 316.803 507.489 316.803 516.401V516.401Z" fill="#FEFEFE" stroke="black" stroke-width="20.5723" stroke-miterlimit="10" stroke-linecap="round" stroke-linejoin="round"/>
<path opacity="0.444" d="M240.191 356.505C233.362 351.467 204.317 364.92 189.198 383.552C176.937 398.661 173.978 406.427 169.751 423.21C167.485 432.211 166.329 455.45 173.376 449.409C177.854 445.569 180.3 432.833 193.968 409.997C216.312 372.667 247.02 361.542 240.191 356.505V356.505Z" fill="white"/>
<path d="M283.906 314.938C200.796 314.938 133.25 382.546 133.25 465.656C133.25 485.671 137.172 504.763 144.281 522.25H166.031C157.821 505.137 153.219 485.941 153.219 465.656C153.219 393.355 211.605 334.969 283.906 334.969C356.208 334.969 414.625 393.355 414.625 465.656C414.625 485.941 410.057 505.138 401.844 522.25H423.562C430.677 504.761 434.625 485.673 434.625 465.656C434.625 382.546 367.017 314.938 283.906 314.938Z" fill="black"/>
</svg>
